X:52
T:Sich a Gitting up Stairs. WHG.051
R:quadrille
S:W.H.Giles MS,Bampton,Oxfordshire,1839p53
O:England
H:donated by Mrs W.R.Kettlewell to VWML,Apr 1927.
A:Bampton, Oxfordshire
N:Last note indistinct.
Z:PJHeadford – VMP 2009
M:2/4
L:1/16
Q:1/4=100
K:G
GA|.B2.c2.d2 G2|B2c2d2 d2|\
e2d2c2B2|A2B2c2:|
|:d>c|BG A2D2 G2|FGAB cAdc|\
BG A2D2 G2|FGAB G2:|

